images/icons/source/card.svg

<svg width="48" height="48" viewBox="0 0 48 48" version="1.1" xmlns="http://www.w3.org/2000/svg" xmlns:xlink="http://www.w3.org/1999/xlink" xmlns:figma="http://www.figma.com/figma/ns">
<title>card</title>
<desc>Created using Figma</desc>
<g id="Canvas" transform="translate(321 45)" figma:type="canvas">
<mask id="mask0_alpha" mask-type="alpha">
<path d="M -321 -45L -273 -45L -273 3L -321 3L -321 -45Z" fill="#FFFFFF"/>
</mask>
<g id="card" style="mix-blend-mode:normal;" mask="url(#mask0_alpha)" figma:type="frame">
<g id="Vector" style="mix-blend-mode:normal;" figma:type="vector">
<use xlink:href="#path0_fill" transform="translate(-321 -39)" fill="#3BB75E" style="mix-blend-mode:normal;"/>
<use xlink:href="#path1_fill" transform="translate(-321 -39)" fill="#3BB75E" style="mix-blend-mode:normal;"/>
<use xlink:href="#path2_fill" transform="translate(-321 -39)" fill="#3BB75E" style="mix-blend-mode:normal;"/>
<use xlink:href="#path3_fill" transform="translate(-321 -39)" fill="#3BB75E" style="mix-blend-mode:normal;"/>
<use xlink:href="#path4_fill" transform="translate(-321 -39)" fill="#3BB75E" style="mix-blend-mode:normal;"/>
<use xlink:href="#path5_fill" transform="translate(-321 -39)" fill="#3BB75E" style="mix-blend-mode:normal;"/>
<use xlink:href="#path6_fill" transform="translate(-321 -39)" fill="#3BB75E" style="mix-blend-mode:normal;"/>
<use xlink:href="#path7_fill" transform="translate(-321 -39)" fill="#3BB75E" style="mix-blend-mode:normal;"/>
</g>
</g>
</g>
<defs>
<path id="path0_fill" fill-rule="evenodd" d="M 45 2L 3 2C 2.44772 2 2 2.44772 2 3L 2 33C 2 33.5523 2.44772 34 3 34L 45 34C 45.5523 34 46 33.5523 46 33L 46 3C 46 2.44772 45.5523 2 45 2ZM 3 0C 1.34315 0 0 1.34315 0 3L 0 33C 0 34.6569 1.34315 36 3 36L 45 36C 46.6569 36 48 34.6569 48 33L 48 3C 48 1.34315 46.6569 0 45 0L 3 0Z"/>
<path id="path1_fill" fill-rule="evenodd" d="M 16.9757 27C 21.9463 27 25.9757 22.9706 25.9757 18C 25.9757 13.0294 21.9463 9 16.9757 9C 12.0052 9 7.97573 13.0294 7.97573 18C 7.97573 22.9706 12.0052 27 16.9757 27ZM 16.9757 29C 23.0509 29 27.9757 24.0751 27.9757 18C 27.9757 11.9249 23.0509 7 16.9757 7C 10.9006 7 5.97573 11.9249 5.97573 18C 5.97573 24.0751 10.9006 29 16.9757 29Z"/>
<path id="path2_fill" fill-rule="evenodd" d="M 25.4043 25.0686C 24.9722 25.5832 24.4939 26.0577 23.9757 26.4857C 25.8776 28.0564 28.3165 29 30.9757 29C 37.0509 29 41.9757 24.0751 41.9757 18C 41.9757 11.9249 37.0509 7 30.9757 7C 28.3165 7 25.8776 7.94364 23.9757 9.51433C 24.4939 9.94227 24.9722 10.4168 25.4043 10.9314C 26.9367 9.72185 28.8719 9 30.9757 9C 35.9463 9 39.9757 13.0294 39.9757 18C 39.9757 22.9706 35.9463 27 30.9757 27C 28.8719 27 26.9367 26.2781 25.4043 25.0686Z"/>
<path id="path3_fill" d="M 24.2481 18.8899L 19.3079 18.8899C 19.1648 18.8899 19.0276 18.8331 18.9265 18.7319C 18.8254 18.6308 18.7685 18.4936 18.7685 18.3506C 18.7685 18.2075 18.8254 18.0703 18.9265 17.9692C 19.0276 17.8681 19.1648 17.8112 19.3079 17.8112L 24.2481 17.8112C 24.3911 17.8112 24.5283 17.8681 24.6295 17.9692C 24.7306 18.0703 24.7874 18.2075 24.7874 18.3506C 24.7874 18.4936 24.7306 18.6308 24.6295 18.7319C 24.5283 18.8331 24.3911 18.8899 24.2481 18.8899Z"/>
<path id="path4_fill" d="M 23.7519 16.4198L 19.3079 16.4198C 19.1648 16.4198 19.0276 16.363 18.9265 16.2618C 18.8254 16.1607 18.7685 16.0235 18.7685 15.8804C 18.7685 15.7374 18.8254 15.6002 18.9265 15.4991C 19.0276 15.3979 19.1648 15.3411 19.3079 15.3411L 23.7519 15.3411C 23.8949 15.3411 24.0321 15.3979 24.1333 15.4991C 24.2344 15.6002 24.2912 15.7374 24.2912 15.8804C 24.2912 16.0235 24.2344 16.1607 24.1333 16.2618C 24.0321 16.363 23.8949 16.4198 23.7519 16.4198Z"/>
<path id="path5_fill" d="M 23.7519 21.36L 19.3079 21.36C 19.1648 21.36 19.0276 21.3032 18.9265 21.202C 18.8254 21.1009 18.7685 20.9637 18.7685 20.8207C 18.7685 20.6776 18.8254 20.5405 18.9265 20.4393C 19.0276 20.3382 19.1648 20.2813 19.3079 20.2813L 23.7519 20.2813C 23.8949 20.2813 24.0321 20.3382 24.1333 20.4393C 24.2344 20.5405 24.2912 20.6776 24.2912 20.8207C 24.2912 20.9637 24.2344 21.1009 24.1333 21.202C 24.0321 21.3032 23.8949 21.36 23.7519 21.36Z"/>
<path id="path6_fill" d="M 22.7649 14.4458L 19.3079 14.4458C 19.1648 14.4458 19.0276 14.389 18.9265 14.2879C 18.8254 14.1867 18.7685 14.0496 18.7685 13.9065C 18.7685 13.7635 18.8254 13.6263 18.9265 13.5252C 19.0276 13.424 19.1648 13.3672 19.3079 13.3672L 22.7649 13.3672C 22.908 13.3672 23.0452 13.424 23.1463 13.5252C 23.2474 13.6263 23.3043 13.7635 23.3043 13.9065C 23.3043 14.0496 23.2474 14.1867 23.1463 14.2879C 23.0452 14.389 22.908 14.4458 22.7649 14.4458Z"/>
<path id="path7_fill" d="M 22.7649 23.3339L 19.3079 23.3339C 19.1648 23.3339 19.0276 23.2771 18.9265 23.176C 18.8254 23.0748 18.7685 22.9376 18.7685 22.7946C 18.7685 22.6516 18.8254 22.5144 18.9265 22.4132C 19.0276 22.3121 19.1648 22.2553 19.3079 22.2553L 22.7649 22.2553C 22.908 22.2553 23.0452 22.3121 23.1463 22.4132C 23.2474 22.5144 23.3043 22.6516 23.3043 22.7946C 23.3043 22.9376 23.2474 23.0748 23.1463 23.176C 23.0452 23.2771 22.908 23.3339 22.7649 23.3339Z"/>
</defs>
</svg>

<svg width="48" height="48" viewBox="0 0 48 48" xmlns="http://www.w3.org/2000/svg" xmlns:xlink="http://www.w3.org/1999/xlink" xmlns:figma="http://www.figma.com/figma/ns">
    <title>
        card
    </title>
    <desc>
        Created using Figma
    </desc>
    <g transform="translate(321 45)" figma:type="canvas">
        <mask id="a">
            <path d="M-321-45h48V3h-48v-48z" fill="#FFF"/>
        </mask>
        <g style="mix-blend-mode:normal" mask="url(#a)" figma:type="frame">
            <g style="mix-blend-mode:normal" figma:type="vector" transform="translate(-321 -39)" fill="#3BB75E">
                <use xlink:href="#b" style="mix-blend-mode:normal"/>
                <use xlink:href="#c" style="mix-blend-mode:normal"/>
                <use xlink:href="#d" style="mix-blend-mode:normal"/>
                <use xlink:href="#e" style="mix-blend-mode:normal"/>
                <use xlink:href="#f" style="mix-blend-mode:normal"/>
                <use xlink:href="#g" style="mix-blend-mode:normal"/>
                <use xlink:href="#h" style="mix-blend-mode:normal"/>
                <use xlink:href="#i" style="mix-blend-mode:normal"/>
            </g>
        </g>
    </g>
    <defs>
        <path id="b" fill-rule="evenodd" d="M45 2H3a1 1 0 0 0-1 1v30a1 1 0 0 0 1 1h42a1 1 0 0 0 1-1V3a1 1 0 0 0-1-1zM3 0a3 3 0 0 0-3 3v30a3 3 0 0 0 3 3h42a3 3 0 0 0 3-3V3a3 3 0 0 0-3-3H3z"/>
        <path id="c" fill-rule="evenodd" d="M16.976 27a9 9 0 1 0 0-18 9 9 0 0 0 0 18zm0 2c6.075 0 11-4.925 11-11s-4.925-11-11-11-11 4.925-11 11 4.925 11 11 11z"/>
        <path id="d" fill-rule="evenodd" d="M25.404 25.069c-.432.514-.91.989-1.428 1.417a10.955 10.955 0 0 0 7 2.514c6.075 0 11-4.925 11-11s-4.925-11-11-11c-2.66 0-5.098.944-7 2.514.518.428.996.903 1.428 1.417A9 9 0 1 1 30.975 27a8.962 8.962 0 0 1-5.57-1.931z"/>
        <path id="e" d="M24.248 18.89h-4.94a.539.539 0 1 1 0-1.079h4.94a.54.54 0 0 1 0 1.079z"/>
        <path id="f" d="M23.752 16.42h-4.444a.539.539 0 1 1 0-1.079h4.444a.54.54 0 0 1 0 1.079z"/>
        <path id="g" d="M23.752 21.36h-4.444a.539.539 0 1 1 0-1.079h4.444a.54.54 0 0 1 0 1.079z"/>
        <path id="h" d="M22.765 14.446h-3.457a.54.54 0 1 1 0-1.079h3.457a.539.539 0 1 1 0 1.079z"/>
        <path id="i" d="M22.765 23.334h-3.457a.54.54 0 1 1 0-1.079h3.457a.54.54 0 1 1 0 1.079z"/>
    </defs>
</svg>
